SVG/file-archive-o.svg

<?xml version="1.0" encoding="utf-8"?>
<!-- Generated by IcoMoon.io -->
<!DOCTYPE svg PUBLIC "-//W3C//DTD SVG 1.1//EN" "http://www.w3.org/Graphics/SVG/1.1/DTD/svg11.dtd">
<svg version="1.1" xmlns="http://www.w3.org/2000/svg" xmlns:xlink="http://www.w3.org/1999/xlink" width="12" height="14" viewBox="0 0 12 14">
<path fill="#444444" d="M5 3v-1h-1v1h1zM6 4v-1h-1v1h1zM5 5v-1h-1v1h1zM6 6v-1h-1v1h1zM11.469 2.969q0.219 0.219 0.375 0.594t0.156 0.688v9q0 0.312-0.219 0.531t-0.531 0.219h-10.5q-0.312 0-0.531-0.219t-0.219-0.531v-12.5q0-0.312 0.219-0.531t0.531-0.219h7q0.312 0 0.688 0.156t0.594 0.375zM8 1.062v2.937h2.937q-0.078-0.227-0.172-0.32l-2.445-2.445q-0.094-0.094-0.32-0.172zM11 13v-8h-3.25q-0.312 0-0.531-0.219t-0.219-0.531v-3.25h-1v1h-1v-1h-4v12h10zM6.102 7.367l0.836 2.727q0.062 0.211 0.062 0.406 0 0.648-0.566 1.074t-1.434 0.426-1.434-0.426-0.566-1.074q0-0.195 0.062-0.406 0.164-0.492 0.937-3.094v-1h1v1h0.617q0.172 0 0.305 0.102t0.18 0.266zM5 11q0.414 0 0.707-0.148t0.293-0.352-0.293-0.352-0.707-0.148-0.707 0.148-0.293 0.352 0.293 0.352 0.707 0.148z"></path>
</svg>

<svg xmlns="http://www.w3.org/2000/svg" viewBox="0 0 12 14"><path d="M5 3V2H4v1h1zm1 1V3H5v1h1zM5 5V4H4v1h1zm1 1V5H5v1h1zm5.47-3.03q.218.218.374.593T12 4.25v9q0 .313-.22.532t-.53.22H.75q-.312 0-.53-.22t-.22-.53V.75Q0 .438.22.22T.75 0h7q.312 0 .688.157t.594.375zM8 1.06V4h2.937q-.078-.228-.172-.32L8.32 1.233Q8.226 1.14 8 1.062zM11 13V5H7.75q-.312 0-.53-.22T7 4.25V1H6v1H5V1H1v12h10zM6.102 7.367l.836 2.727q.062.21.062.406 0 .648-.566 1.074T5 12t-1.434-.426T3 10.5q0-.195.062-.406Q3.226 9.602 4 7V6h1v1h.616q.172 0 .305.102t.18.266zM5 11q.414 0 .707-.148T6 10.5t-.293-.352T5 10t-.707.148T4 10.5t.293.352T5 11z" /></svg>
